!!!OTL: Hongjun nanxia shenglige
!!!ARE: Asia, China,ÿHenan Xinxian
!! IV, 128
!!!SCT: C1946
!!!YEM: Copyright 1995, estate of Helmut Schaffrath.
**kern
*ICvox
*Ivox
*M2/4
*k[b-e-]
*B-:
{8.gg
16ff
8dd
16cc
16dd
=1
4.ff
8gg
=2
8bb-
8gg
4ddd
=3
2ccc}
=4
{4ccc
8ddd
8fff
=5
8ddd
8ccc
4bb-
=6
4bb-
8ee-
8gg
=7
2ff}
=8
{8ccc
16ddd
16ccc
4bb-
=9
8ccc
16ddd
16ccc
4bb-
=10
8.dd
16ff
8gg
8bb-
=11
8ff
8gg
8ff
8r}
=12
{8dd
8cc
4r
=13
8.dd
16ff
8gg
8bb-
=14
8gg
4ff
8cc
=15
8dd
8ff
8dd
8cc
=16
2b-}
=17
{8.dd
16ff
8gg
8bb-
=18
8ff
8gg
8ff
8dd
=19
8dd
8cc
4r}
=20
{8.dd
16ff
8gg
8bb-
=21
8gg
4ff
8cc
=22
8dd
8ff
8dd
8cc
=23
2b-}
==
!!!AGN: Xiaodiao
!!!AMT: simple duple
!!!AIN: vox
!!!EED: Helmut Schaffrath
!!!EEV: 1.0
*-
